X:455
T:True Life Blues
C:Break By Mike Marshal
N:Transcribed By Mike Falk Transcribed By Mike Stangeland
R:bluegrass
L:1/8
Q:1/4=180
M:4/4
K:C
z2 CD EG AB | "C"cd e2 ee ee | e2 eg (3ded c2 | "F"[c/G/][c/A/][c/A/][c/A/] [c/A/][c/A/][c/A/][c/A/] [cA]G FD | 
C4 CE EF | "C"Gc zG cd ^de | ge ae ge ce | "G"d4 gd cd | BG z2 [B2F2] z2 | "C"[c'/g/][c'/g/][c'/g/][c'/g/] [c'/g/][c'/g/][c'/g/][c'/g/] [c'/g/][c'/g/][c'/g/][c'/g/] [c'/g/][c'/g/][c'/g/][c'/g/] | 
[c'3g3]G ce zc | "F"f4 fd cd | [AA]F z3D D^D | "C"Ec zE cd ^de | "G"gd BG BG Bd | 
"C"c4 (3G^F=F EG | C2 [c2E2C2] z2 [c2E2C2] | z8 | z8 | z8 | 


